public/icons/states/id.svg

<svg xmlns="http://www.w3.org/2000/svg" width="24" height="24" viewBox="228.332 233.026 20.361 19.639"><path d="m246.56 243.145.133 7.52-6.693-.026-6.667-.267.267-5.52.4-1.013-.214-.267-.453-.133v-.56l.827-1.147.053-.427.96-1.706-.24-.48-.507-.507-.4-1.44.48-7.84 1.974.133-.16 2.934.666.96-.053.453.133.213-.133.134.8.56 1.04 1.706.24-.106.187.293.533-.053-.293 1.466-.134.08.214.854-.347.293.133.213-.133.4.533.294.694-.64.32.293.186.88.56.88v.453l.24.24.4.027.32.96.294.293.24-.373.746.107.294-.32 1.706.053-.106-.293.266-.347z"/></svg>

<svg xmlns="http://www.w3.org/2000/svg" width="24" height="24" viewBox="228.332 233.026 20.36100000000002 19.63899999999998">
  <path
     d="M246.56 243.145L246.693 250.665L240 250.639L233.333 250.372L233.6 244.852L234 243.839L233.786 243.572L233.333 243.439V242.879L234.16 241.732L234.213 241.305L235.173 239.599L234.933 239.119L234.426 238.612L234.026 237.172L234.506 229.332L236.48 229.465L236.32 232.399L236.986 233.359L236.933 233.812L237.066 234.025L236.933 234.159L237.733 234.719L238.773 236.425L239.013 236.319L239.2 236.612L239.733 236.559L239.44 238.025L239.306 238.105L239.52 238.959L239.173 239.252L239.306 239.465L239.173 239.865L239.706 240.159L240.4 239.519L240.72 239.812L240.906 240.692L241.466 241.572V242.025L241.706 242.265L242.106 242.292L242.426 243.252L242.72 243.545L242.96 243.172L243.706 243.279L244 242.959L245.706 243.012L245.6 242.719L245.866 242.372L246.56 243.145Z"
     fill="black"
     id="path82" />
</svg>
